X:113
M:6/8
L:1/8
Q:3/8=120
K:A Minor
c2 G E>A z|G2E D3|E<G z A<c z|B2G E3|
c2d e2A|G2 E D3|E<G z A<cz|B2^G A3:|

